img/title.svg

<?xml version="1.0" encoding="UTF-8" standalone="no"?>
<!-- Generator: Adobe Illustrator 16.0.0, SVG Export Plug-In . SVG Version: 6.00 Build 0)  -->

<svg
   xmlns:dc="http://purl.org/dc/elements/1.1/"
   xmlns:cc="http://creativecommons.org/ns#"
   xmlns:rdf="http://www.w3.org/1999/02/22-rdf-syntax-ns#"
   xmlns:svg="http://www.w3.org/2000/svg"
   xmlns="http://www.w3.org/2000/svg"
   xmlns:sodipodi="http://sodipodi.sourceforge.net/DTD/sodipodi-0.dtd"
   xmlns:inkscape="http://www.inkscape.org/namespaces/inkscape"
   version="1.1"
   id="Layer_1"
   x="0px"
   y="0px"
   width="6593"
   height="1190.317"
   viewBox="-1996 -536 6593 1190.317"
   enable-background="new -1996 -536 8000 2000"
   xml:space="preserve"
   inkscape:version="0.91 r13725"
   sodipodi:docname="title.svg"><metadata
     id="metadata23"><rdf:RDF><cc:Work
         rdf:about=""><dc:format>image/svg+xml</dc:format><dc:type
           rdf:resource="http://purl.org/dc/dcmitype/StillImage" /><dc:title></dc:title></cc:Work></rdf:RDF></metadata><defs
     id="defs21" /><sodipodi:namedview
     pagecolor="#ffffff"
     bordercolor="#666666"
     borderopacity="1"
     objecttolerance="10"
     gridtolerance="10"
     guidetolerance="10"
     inkscape:pageopacity="0"
     inkscape:pageshadow="2"
     inkscape:window-width="640"
     inkscape:window-height="480"
     id="namedview19"
     showgrid="false"
     fit-margin-top="0"
     fit-margin-left="0"
     fit-margin-right="0"
     fit-margin-bottom="0"
     inkscape:zoom="0.036"
     inkscape:cx="3296.5"
     inkscape:cy="595.159"
     inkscape:window-x="0"
     inkscape:window-y="0"
     inkscape:window-maximized="0"
     inkscape:current-layer="Layer_1" /><g
     enable-background="new    "
     id="g3"
     transform="translate(-703.5,-404.842)"><path
       d="m -1292.5,266.748 0,-249.965 c 0,-86.722 55.649,-147.939 136.033,-147.939 l 587.42,0 0,146.239 -52.558,153.043 -332.358,0 0,54.413 293.711,215.958 c 74.2,54.413 91.205,107.126 91.205,202.353 l 0,270.37 c 0,86.723 -55.651,147.939 -134.489,147.939 l -588.964,0 0,-297.581 384.917,0 0,-78.219 -293.711,-214.259 c -74.203,-56.116 -91.206,-107.129 -91.206,-202.352 z"
       id="path5"
       inkscape:connector-curvature="0"
       style="fill:#010101" /><path
       d="m 335.268,-131.158 0,1190.312 -675.532,0 c -80.384,0 -136.033,-61.217 -136.033,-147.939 l 0,-1042.373 338.539,0 0,892.736 134.49,0 0,-892.736 338.536,0 0,0 z"
       id="path7"
       inkscape:connector-curvature="0"
       style="fill:#010101" /><path
       d="m 1003.071,419.786 -44.829,-403.005 0,-147.939 312.258,0 0,1190.312 -358.633,0 -159.222,-549.24 -26.281,0 43.283,401.304 0,147.939 -310.711,0 0,-1190.312 358.634,0 157.678,550.943 27.823,-0.002 0,0 z"
       id="path9"
       inkscape:connector-curvature="0"
       style="fill:#010101" /><path
       d="m 1394.169,1059.154 0,-1190.312 675.531,0 c 78.837,0 134.489,61.217 134.489,147.939 l 0,894.434 c 0,86.723 -55.648,147.939 -134.489,147.939 l -675.531,0 z m 336.992,-297.576 136.034,0 0,-593.455 -136.034,0 0,593.455 z"
       id="path11"
       inkscape:connector-curvature="0"
       style="fill:#010101" /><path
       d="m 2463.877,1059.154 c -80.386,0 -136.033,-61.217 -136.033,-147.939 l 0,-894.434 c 0,-86.723 55.647,-147.939 136.033,-147.939 l 539.498,0 c 80.384,0 136.033,61.217 136.033,147.939 l 0,894.434 c 0,86.723 -55.647,147.939 -136.033,147.939 l -539.498,0 z m 202.508,-891.031 0,593.456 134.488,0 0,-593.456 -134.488,0 0,0 z"
       id="path13"
       inkscape:connector-curvature="0"
       style="fill:#010101" /><path
       d="m 3955.613,-131.158 83.475,573.05 27.824,0 0,-573.05 329.266,0 0,147.939 -109.753,1042.373 -378.733,0 -81.93,-467.624 -23.188,0 -81.927,467.624 -377.186,0 -111.301,-1042.373 0,-147.939 330.812,0 0,573.05 26.277,0 83.477,-573.05 282.887,0 z"
       id="path15"
       inkscape:connector-curvature="0"
       style="fill:#010101" /><path
       d="m 5033.07,419.786 -44.832,-403.005 0,-147.939 312.262,0 0,1190.312 -358.637,0 -159.22,-549.24 -26.282,0 43.285,401.304 0,147.939 -310.711,0 0,-1190.312 358.635,0 157.675,550.943 27.825,-0.002 0,0 z"
       id="path17"
       inkscape:connector-curvature="0"
       style="fill:#010101" /></g></svg>

<?xml version="1.0" encoding="utf-8"?>
<!-- Generator: Adobe Illustrator 16.0.0, SVG Export Plug-In . SVG Version: 6.00 Build 0)  -->
<!DOCTYPE svg PUBLIC "-//W3C//DTD SVG 1.1//EN" "http://www.w3.org/Graphics/SVG/1.1/DTD/svg11.dtd">
<svg version="1.1" id="Layer_1" xmlns="http://www.w3.org/2000/svg" xmlns:xlink="http://www.w3.org/1999/xlink" x="0px" y="0px"
	 width="8000px" height="2000px" viewBox="-1996 -536 8000 2000" enable-background="new -1996 -536 8000 2000"
	 xml:space="preserve">
<g enable-background="new    ">
	<path fill="#010101" d="M-1292.5,266.748V16.783c0-86.722,55.649-147.939,136.033-147.939h587.42V15.083l-52.558,153.043h-332.358
		v54.413l293.711,215.958c74.2,54.413,91.205,107.126,91.205,202.353v270.37c0,86.723-55.651,147.939-134.489,147.939H-1292.5
		V761.578h384.917v-78.219l-293.711-214.259C-1275.497,412.984-1292.5,361.971-1292.5,266.748z"/>
	<path fill="#010101" d="M335.268-131.158v1190.312h-675.532c-80.384,0-136.033-61.217-136.033-147.939V-131.158h338.539v892.736
		H-3.268v-892.736H335.268L335.268-131.158z"/>
	<path fill="#010101" d="M1003.071,419.786L958.242,16.781v-147.939H1270.5v1190.312H911.867l-159.222-549.24h-26.281
		l43.283,401.304v147.939H458.936V-131.155h358.634l157.678,550.943L1003.071,419.786L1003.071,419.786z"/>
	<path fill="#010101" d="M1394.169,1059.154V-131.158H2069.7c78.837,0,134.489,61.217,134.489,147.939v894.434
		c0,86.723-55.648,147.939-134.489,147.939H1394.169z M1731.161,761.578h136.034V168.123h-136.034V761.578z"/>
	<path fill="#010101" d="M2463.877,1059.154c-80.386,0-136.033-61.217-136.033-147.939V16.781
		c0-86.723,55.647-147.939,136.033-147.939h539.498c80.384,0,136.033,61.217,136.033,147.939v894.434
		c0,86.723-55.647,147.939-136.033,147.939H2463.877z M2666.385,168.123v593.456h134.488V168.123H2666.385L2666.385,168.123z"/>
	<path fill="#010101" d="M3955.613-131.158l83.475,573.05h27.824v-573.05h329.266V16.781l-109.753,1042.373h-378.733l-81.93-467.624
		h-23.188l-81.927,467.624h-377.186L3232.16,16.781v-147.939h330.812v573.05h26.277l83.477-573.05H3955.613z"/>
	<path fill="#010101" d="M5033.07,419.786l-44.832-403.005v-147.939H5300.5v1190.312h-358.637l-159.22-549.24h-26.282
		l43.285,401.304v147.939h-310.711V-131.155h358.635l157.675,550.943L5033.07,419.786L5033.07,419.786z"/>
</g>
</svg>
